X: 14
T:Redwing
R:reel
M:4/4
L:1/4
K:G
GGGB | ddd2 | cege | edd2 | c2cc |BBG2 | AAFF | GGG2 :|
|:gfe2 | c2eg | fe  d2 | B3 d | e   dd2 |  A3   d | e dd2 | B4 | g f  e2
  | e2  eg |  fe  d2 | B3  d | e d  d2 | A3 c |  B   AG2  :|
